src/actions/symbolic/object-translucent-blend-mode-symbolic.svg

<svg width="16" height="16" version="1.1" viewBox="0 0 16 16" xmlns="http://www.w3.org/2000/svg">
 <path d="M 8,2 C 7.89086,2 7.78567,2.0188 7.6875,2.0508 l 6.26172,6.26172 C 13.98125,8.21433 14,8.10914 14,8 V 6.12305 L 9.87695,2 Z M 11.15039,2 14,4.84961 V 3 C 14,2.446 13.554,2 13,2 Z M 7.05078,2.6875 C 7.01875,2.78567 7,2.89086 7,3 V 4.89062 L 11.10938,9 H 13 c 0.10914,0 0.21433,-0.0188 0.3125,-0.0508 z" fill="#363636" opacity=".5" style="paint-order:stroke fill markers"/>
 <path d="m7 6.1641v1.8359c0 0.554 0.446 1 1 1h1.8359z" fill="#363636" opacity=".80085" style="paint-order:stroke fill markers"/>
 <path d="m6 6c-0.77602 0-1.5 0.22104-2.1133 0.60352l2.3672 2.3691c-0.16184-0.28836-0.25391-0.62041-0.25391-0.97266zm-2.8223 1.166c-0.33617 0.33479-0.61184 0.72947-0.8125 1.166l5.3027 5.3027c0.43654-0.20066 0.83122-0.47633 1.166-0.8125zm-1.1152 2.1367c-0.03981 0.22646-0.0625 0.45941-0.0625 0.69727 0 2.2091 1.7909 4 4 4 0.23786 0 0.47081-0.0227 0.69727-0.0625zm4.9648 0.44336 2.3691 2.3672c0.38248-0.6133 0.60352-1.3373 0.60352-2.1133h-2c-0.35225 0-0.6843-0.0921-0.97266-0.25391z" fill="#363636" style="paint-order:stroke fill markers"/>
 <path d="m7.5 0c-1.3764 0-2.5 1.1236-2.5 2.5v1.584c-2.8333 0.47791-5 2.9491-5 5.916 0 3.3078 2.6922 6 6 6 2.9669 0 5.4381-2.1667 5.916-5h1.584c1.3764 0 2.5-1.1236 2.5-2.5v-6c0-1.3764-1.1236-2.5-2.5-2.5zm0 1h6c0.83965 0 1.5 0.66035 1.5 1.5v6c0 0.83965-0.66035 1.5-1.5 1.5h-2.5a5 5 0 0 1-0.11328 1h0.0137c-0.46143 2.2861-2.4755 4-4.9004 4-2.7673 0-5-2.2327-5-5 0-2.4249 1.7139-4.439 4-4.9004v0.0137a5 5 0 0 1 0.99997-0.11331v-2.5c0-0.83965 0.66035-1.5 1.5-1.5z" color="#000000" fill="#363636" stroke-miterlimit="10" style="paint-order:stroke fill markers"/>
</svg>

<svg xmlns="http://www.w3.org/2000/svg" width="16" height="16">
    <path fill="#050505" d="M8 2c-.11 0-.214.019-.312.05l6.261 6.263C13.981 8.214 14 8.109 14 8V6.123L9.877 2Zm3.15 0L14 4.85V3c0-.554-.446-1-1-1Zm-4.1.688C7.02 2.786 7 2.89 7 3v1.89L11.11 9H13c.11 0 .214-.019.313-.05z" opacity=".5" style="paint-order:stroke fill markers"/>
    <path fill="#050505" d="M7 6.164V8c0 .554.446 1 1 1h1.836z" opacity=".801" style="paint-order:stroke fill markers"/>
    <path fill="#050505" d="M6 6c-.776 0-1.5.221-2.113.604l2.367 2.369A1.982 1.982 0 0 1 6 8zM3.178 7.166c-.336.335-.612.73-.813 1.166l5.303 5.303c.436-.201.831-.477 1.166-.813zM2.063 9.303a4 4 0 0 0 4.635 4.635zm4.964.443 2.37 2.367A3.98 3.98 0 0 0 10 10H8c-.352 0-.684-.092-.973-.254z" opacity=".7" style="paint-order:stroke fill markers"/>
    <path fill="#050505" fill-opacity=".7" d="M7.5 0A2.506 2.506 0 0 0 5 2.5v1.584C2.167 4.562 0 7.034 0 10c0 3.308 2.692 6 6 6 2.967 0 5.438-2.167 5.916-5H13.5c1.376 0 2.5-1.124 2.5-2.5v-6C16 1.124 14.876 0 13.5 0zm0 1h6c.84 0 1.5.66 1.5 1.5v6c0 .84-.66 1.5-1.5 1.5H11a5 5 0 0 1-.113 1h.013A4.992 4.992 0 0 1 6 15c-2.767 0-5-2.233-5-5a4.992 4.992 0 0 1 4-4.9v.013A5 5 0 0 1 6 5V2.5C6 1.66 6.66 1 7.5 1z" color="#000" style="paint-order:stroke fill markers"/>
</svg>
